X: 23628
T: Lily Bob's
R: jig
M: 6/8
K: Amajor
|:Aed cBA|ef(e e)ef|c2 A ~B3|BAB cec|
BAF cBA|ef(e e)fa|c3 ~B3|BcB A3:|
|:AGA ~F2E|FAc ~B2A|Bce efa|ecA cd(B|
B)AG ~F2E|FAc ~B2A|Ace ~f2e|ecB A3:|

